_includes/icons/color-bank.svg

<svg fill="#666" height="50" viewBox="0 0 48 48" width="50" xmlns="http://www.w3.org/2000/svg"><path d="m38 42h-28c-2.199219 0-4-1.800781-4-4v-28c0-2.199219 1.800781-4 4-4h28c2.199219 0 4 1.800781 4 4v28c0 2.199219-1.800781 4-4 4z" fill="#4caf50"/><path d="m29.601563 28c0 4-3.800782 4.5-4.5 4.5v2.199219h-1.800782v-2.199219c-.601562-.101562-4.800781-.5-4.800781-5.300781h3.300781c0 .5 0 2.800781 2.5 2.800781 2.097657 0 2.097657-1.699219 2.097657-1.898437 0-3.601563-7.199219-2.101563-7.199219-7.703125 0-3.398438 3.101562-4.5 4.5-4.5v-2.398438h1.800781v2.398438c1.101563.101562 4.199219 1 4.199219 5.203125h-3.300781c0-.902344-.199219-2.703125-2.097657-2.703125-1.902343 0-1.902343 1.703125-1.902343 2-.097657 3.300781 7.203125 1.902343 7.203125 7.601562z" fill="#fff"/></svg>

<svg xmlns="http://www.w3.org/2000/svg" viewBox="0 0 48 48" width="50" height="50" fill="#666"><path d="M 38 42 L 10 42 C 7.800781 42 6 40.199219 6 38 L 6 10 C 6 7.800781 7.800781 6 10 6 L 38 6 C 40.199219 6 42 7.800781 42 10 L 42 38 C 42 40.199219 40.199219 42 38 42 Z" fill="#4caf50"/><path d="M 29.601563 28 C 29.601563 32 25.800781 32.5 25.101563 32.5 L 25.101563 34.699219 L 23.300781 34.699219 L 23.300781 32.5 C 22.699219 32.398438 18.5 32 18.5 27.199219 L 21.800781 27.199219 C 21.800781 27.699219 21.800781 30 24.300781 30 C 26.398438 30 26.398438 28.300781 26.398438 28.101563 C 26.398438 24.5 19.199219 26 19.199219 20.398438 C 19.199219 17 22.300781 15.898438 23.699219 15.898438 L 23.699219 13.5 L 25.5 13.5 L 25.5 15.898438 C 26.601563 16 29.699219 16.898438 29.699219 21.101563 L 26.398438 21.101563 C 26.398438 20.199219 26.199219 18.398438 24.300781 18.398438 C 22.398438 18.398438 22.398438 20.101563 22.398438 20.398438 C 22.300781 23.699219 29.601563 22.300781 29.601563 28 Z" fill="#fff"/></svg>
